img/hero-bg-desktop.svg

<svg width="1381" height="1035" fill="none" xmlns="http://www.w3.org/2000/svg"><g filter="url(#a)"><path fill-rule="evenodd" clip-rule="evenodd" d="M108.207 503.399c-36.24 0-54.388 43.816-28.761 69.44l134.283 134.274a100.001 100.001 0 0 0 70.708 29.286h70.693c26.52 0 51.954 10.535 70.708 29.287l161.039 161.027A100.002 100.002 0 0 0 657.585 956h388.855c72.53 0 108.86-87.698 57.56-138.985l-86.39-86.385c-19.408-19.41-5.66-52.6 21.79-52.6s41.2-33.189 21.79-52.599l-195.339-195.32a100.002 100.002 0 0 0-70.708-29.287H560.701a99.998 99.998 0 0 1-70.708-29.287l-35.253-35.25A100.002 100.002 0 0 0 384.032 307H148.88c-51.248 0-76.913 61.963-40.673 98.199l28.761 28.76c25.627 25.624 7.479 69.44-28.761 69.44Z" fill="#2D314D"/></g><path fill-rule="evenodd" clip-rule="evenodd" d="M246.207 196.399c-36.24 0-54.388 43.816-28.762 69.44l134.284 134.274a100.001 100.001 0 0 0 70.708 29.286h70.693c26.52 0 51.954 10.535 70.708 29.287l161.039 161.027A100.002 100.002 0 0 0 795.585 649h388.855c72.53 0 108.86-87.698 57.56-138.985l-86.39-86.385c-19.41-19.41-5.66-52.6 21.79-52.6s41.2-33.189 21.79-52.599l-195.34-195.32a99.998 99.998 0 0 0-70.707-29.287H698.701a99.998 99.998 0 0 1-70.708-29.287l-35.253-35.25A100.002 100.002 0 0 0 522.032 0H286.88c-51.248 0-76.913 61.963-40.673 98.2l28.761 28.759c25.627 25.624 7.479 69.44-28.761 69.44Z" fill="url(#b)"/><defs><linearGradient id="b" x1="-465.913" y1="323.138" x2="66.834" y2="1335.28" gradientUnits="userSpaceOnUse"><stop stop-color="#33D35E"/><stop offset="1" stop-color="#2AB6D9"/></linearGradient><filter id="a" x="-9.551" y="232" width="1214.57" height="803" filterUnits="userSpaceOnUse" color-interpolation-filters="sRGB"><feFlood flood-opacity="0" result="BackgroundImageFix"/><feColorMatrix in="SourceAlpha" values="0 0 0 0 0 0 0 0 0 0 0 0 0 0 0 0 0 0 127 0" result="hardAlpha"/><feOffset dy="2"/><feGaussianBlur stdDeviation="38.5"/><feColorMatrix values="0 0 0 0 0 0 0 0 0 0 0 0 0 0 0 0 0 0 0.0240111 0"/><feBlend in2="BackgroundImageFix" result="effect1_dropShadow_242_2"/><feBlend in="SourceGraphic" in2="effect1_dropShadow_242_2" result="shape"/></filter></defs></svg>

<svg width="1381" height="1035" viewBox="0 0 1381 1035" fill="none" xmlns="http://www.w3.org/2000/svg">
<g filter="url(#filter0_d_242_2)">
<path fill-rule="evenodd" clip-rule="evenodd" d="M108.207 503.399C71.9673 503.399 53.8192 547.215 79.4455 572.839L213.729 707.113C232.483 725.865 257.917 736.399 284.437 736.399H355.13C381.65 736.399 407.084 746.934 425.838 765.686L586.877 926.713C605.631 945.465 631.065 956 657.585 956H1046.44C1118.97 956 1155.3 868.302 1104 817.015L1017.61 730.63C998.202 711.22 1011.95 678.03 1039.4 678.03V678.03C1066.85 678.03 1080.6 644.841 1061.19 625.431L865.851 430.111C847.097 411.359 821.663 400.824 795.143 400.824H560.701C534.18 400.824 508.746 390.289 489.993 371.537L454.74 336.287C435.986 317.535 410.552 307 384.032 307H148.88C97.6319 307 71.9673 368.963 108.207 405.199L136.968 433.959C162.595 459.583 144.447 503.399 108.207 503.399V503.399Z" fill="#2D314D"/>
</g>
<path fill-rule="evenodd" clip-rule="evenodd" d="M246.207 196.399C209.967 196.399 191.819 240.215 217.445 265.839L351.729 400.113C370.483 418.865 395.917 429.399 422.437 429.399H493.13C519.65 429.399 545.084 439.934 563.838 458.686L724.877 619.713C743.631 638.465 769.065 649 795.585 649H1184.44C1256.97 649 1293.3 561.302 1242 510.015L1155.61 423.63C1136.2 404.22 1149.95 371.03 1177.4 371.03V371.03C1204.85 371.03 1218.6 337.841 1199.19 318.431L1003.85 123.111C985.097 104.359 959.663 93.8239 933.143 93.8239H698.701C672.18 93.8239 646.746 83.2892 627.993 64.5372L592.74 29.2866C573.986 10.5346 548.552 0 522.032 0H286.88C235.632 0 209.967 61.9626 246.207 98.1995L274.968 126.959C300.595 152.583 282.447 196.399 246.207 196.399V196.399Z" fill="url(#paint0_linear_242_2)"/>
<defs>
<filter id="filter0_d_242_2" x="-9.55109" y="232" width="1214.57" height="803" filterUnits="userSpaceOnUse" color-interpolation-filters="sRGB">
<feFlood flood-opacity="0" result="BackgroundImageFix"/>
<feColorMatrix in="SourceAlpha" type="matrix" values="0 0 0 0 0 0 0 0 0 0 0 0 0 0 0 0 0 0 127 0" result="hardAlpha"/>
<feOffset dy="2"/>
<feGaussianBlur stdDeviation="38.5"/>
<feColorMatrix type="matrix" values="0 0 0 0 0 0 0 0 0 0 0 0 0 0 0 0 0 0 0.0240111 0"/>
<feBlend mode="normal" in2="BackgroundImageFix" result="effect1_dropShadow_242_2"/>
<feBlend mode="normal" in="SourceGraphic" in2="effect1_dropShadow_242_2" result="shape"/>
</filter>
<linearGradient id="paint0_linear_242_2" x1="-465.913" y1="323.138" x2="66.8341" y2="1335.28" gradientUnits="userSpaceOnUse">
<stop stop-color="#33D35E"/>
<stop offset="1" stop-color="#2AB6D9"/>
</linearGradient>
</defs>
</svg>
